X:80
T:La volta 202
C:Michael Praetorius
L:1/8
M:4/4
O:Germany
Z:Andy Hornby
%%TUNEURL: http://www.leeds.ac.uk/music/Info/RRTuneBk/gettune/00000d93.html
%%ID:00000d93
K:D
d2e2f2ef|g2f2e2d2|f4g4|a8|d2e2f2ef|g2f2e2d2|f4e4|d8:|
|:[M:4/4]d4e4|[M:6/4]d2d2e2f2e2d2|[M:4/4]d4e4|[M:6/4]d2d2B2c2d4:|
